docs/assets/img/membean-logo.svg

<?xml version="1.0" encoding="UTF-8"?>
<svg width="89px" height="26px" viewBox="0 0 89 26" version="1.1" xmlns="http://www.w3.org/2000/svg" xmlns:xlink="http://www.w3.org/1999/xlink">
    <!-- Generator: Sketch 51.3 (57544) - http://www.bohemiancoding.com/sketch -->
    <title>Membean Logo</title>
    <desc>Created with Sketch.</desc>
    <defs></defs>
    <g id="Logos" stroke="none" stroke-width="1" fill="none" fill-rule="evenodd">
        <g id="logo/green">
            <g id="Membean-Logo">
                <path d="M81.1420176,23.578 L88.8054549,24.1777778 L87.6572313,19.6666667 C87.6572313,16.4668889 87.5688894,14.2668889 87.4140703,12.8888889 C87.0167527,9.44444444 86.1112484,7.08911111 84.6092155,5.71133333 C83.5714193,4.75577778 82.4006685,4.26688889 81.164103,4.28911111 L81.4068224,3.08911111 L72.8157953,2.978 L73.03665,4.46688889 C71.6452654,3.35577778 69.9005132,2.77777778 67.7803081,2.77777778 C67.4711115,2.77777778 66.9408394,2.82244444 64.4674876,3.24466667 L60.2933337,3.578 L60.4256257,3.95577778 C59.4317795,3.06688889 58.4160687,2.578 57.3336598,2.46688889 C57.1569761,2.44444444 56.9805132,2.44444444 56.825694,2.44444444 C55.5668222,2.44444444 53.3582752,3 52.1877453,6.53355556 C50.9070088,5.33333333 49.1620358,4.77777778 47.1080871,4.95577778 L47.1080871,3.80022222 L47.859214,0 L38.8925131,0.178 L39.8421883,3.91133333 L39.8642737,6.62244444 C39.4004789,6.33333333 38.8925131,6.13355556 38.2962054,6.06688889 C38.1416071,6.04466667 37.9870088,6.04466667 37.854496,6.04466667 C37.1696255,6.04466667 36.2862067,6.22222222 35.3809233,6.91133333 L35.6459489,6.53355556 L25.7956084,4.978 C24.5148719,3.42244444 23.2118292,2.62244444 21.8202237,2.46688889 C21.6437608,2.44444444 21.467077,2.44444444 21.3124788,2.44444444 C20.009436,2.44444444 17.6683762,3.04466667 16.5641027,6.95577778 C16.4536753,7.31133333 16.3653334,7.66666667 16.2988562,8.04466667 C15.6362921,7.02244444 14.6868377,6.22222222 13.3173177,6.06688889 C13.1850257,6.04466667 13.0745984,6.04466667 12.9420855,6.04466667 C12.257436,6.04466667 11.3740172,6.22222222 10.4685129,6.91133333 L10.7335385,6.53355556 L0,4.82244444 L1.14844445,9.15577778 L0.817162398,21.2222222 L0.110427351,26 L9.78364245,24.0666667 L9.49675219,23.578 L12.8316582,24.0666667 L12.8316582,24.0446667 L19.0818463,25.8888889 L18.5959659,22.5555556 C19.3247864,23.1557778 20.2523762,23.5335556 21.4008206,23.5335556 C22.9909745,23.5335556 24.4486155,22.8668889 25.7295728,21.5335556 L25.0670087,26 L34.7402238,24.0666667 L34.4533335,23.578 L37.7882395,24.0666667 L37.7882395,24.0446667 L44.0384276,25.8888889 L43.773402,24.0666667 L47.2185145,24.0666667 L47.2185145,23.7113333 C47.4616755,23.7333333 47.7267011,23.7557778 47.9696413,23.7557778 C49.5597952,23.7557778 51.3928892,23.1335556 52.739882,20.8224444 C53.5572653,22.378 54.8380017,23.5335556 56.8919504,23.5335556 C58.6369234,23.5335556 60.2270773,22.7113333 61.6403265,21.1111111 C61.9276585,20.7777778 62.1705987,20.4891111 62.3693679,20.2002222 L62.6123081,20.0446667 C62.9215046,20.4224444 63.2527867,20.7777778 63.6503252,21.1335556 C64.5779149,22 65.5938465,22.6222222 66.6537283,23 L66.3005816,23.8888889 L74.7811813,26 L74.6488893,23.5111111 L81.164103,23.6446667 L81.1420176,23.578 Z" id="Shadow" fill="#21292E"></path>
                <path d="M41.6977308,22.5108889 L41.8519661,23.5778222 L37.2802737,22.2220444 L38.0090942,21.1333778 C38.1416071,20.0664889 38.2078635,18.9998222 38.2078635,17.9333778 C38.2078635,16.1776 38.0090942,14.8222667 37.5894703,13.8887111 C37.0815045,13.9553778 36.6397951,14.5109333 36.2201712,15.5778222 C36.2201712,16.9778222 36.1097438,18.8222667 35.8888891,21.0889333 C36.1318293,21.6889333 36.2422566,22.0889333 36.2201712,22.2667111 L31.9576754,21.6444889 C31.9797609,21.4889333 32.1564446,21.2667111 32.5098122,20.9778222 C32.9294361,18.7556 33.1282053,17.2000444 33.1282053,16.3111556 C33.1282053,15.4442667 32.9956925,14.8887111 32.7085814,14.6220444 C32.222701,14.6220444 31.9135045,14.7776 31.8251626,15.0889333 L31.3613677,16.7776 L31.2288549,21.8222667 L31.9355899,23.0664889 L27.4080685,23.9553778 L27.7393506,21.7111556 L28.0706326,9.24448889 L27.6068378,7.44426667 L32.3993848,8.20004444 L31.5601369,9.3556 L31.5601369,9.66648889 C32.2006156,8.9556 32.8410942,8.60004444 33.4815728,8.60004444 C34.3649917,8.60004444 35.0054703,9.06671111 35.4692652,9.97782222 C36.2643421,8.71115556 37.1698464,8.13337778 38.185778,8.24448889 C39.6655045,8.42226667 40.6593507,10.3111556 41.145231,13.9111556 C41.3440002,15.3778222 41.4765131,17.7776 41.4985985,21.1333778 L41.6681243,22.3060839 L41.9403079,20.8 L41.7636242,3.97777778 L41.3440002,2.31111111 L45.606496,2.22222222 L45.2752139,3.91111111 L45.2752139,7.6 C46.2028037,7.28888889 47.064137,7.13333333 47.859214,7.13333333 C49.5597952,7.13333333 50.7965815,7.77777778 51.6358294,9.06666667 C52.3204789,10.1555556 52.6738465,11.6 52.6738465,13.4 C52.6959319,14.1111111 52.651761,14.7777778 52.5855046,15.3997778 C52.0554533,19.9333333 50.5315559,22.2 48.0579832,22.2 C47.2408208,22.2 46.357402,21.9333333 45.4298122,21.3777778 L45.4298122,22.5108889 L41.6977308,22.5108889 Z M86.4205112,22.4222222 L82.0915382,22.0888889 L82.3786493,20.2444444 L82.3786493,20.1111111 C82.3786493,19.6888889 82.3786493,19.0444444 82.4009556,18.1775556 C82.4228202,17.3333333 82.4228202,16.6888889 82.4228202,16.2444444 C82.4228202,12.9111111 82.0034172,10.8888889 81.1862548,10.1777778 C80.4132633,10.2444444 79.5740154,11.1777778 78.6464257,12.9777778 L78.4474356,19.9111111 L78.889145,22.0222222 L74.42788,21.9333333 L74.9581522,19.8 L75.3112988,7.13333333 L75.0241877,5.2 L79.1762561,5.26666667 L78.7787177,7.26666667 L78.7787177,7.66666667 C79.6402719,6.88888889 80.4795197,6.51111111 81.2966821,6.51111111 C82.0255026,6.51111111 82.7099314,6.82222222 83.3948018,7.44444444 C84.5209399,8.48888889 85.2720668,10.4888889 85.6033488,13.4444444 C85.7579471,14.7331111 85.8242035,16.9553333 85.8242035,20.0888889 L85.8242035,20.2222222 L86.4205112,22.4222222 Z M74.0965538,12.8888 C73.5888088,18.4888 73.1470994,21.5999111 72.7937319,22.2445778 L72.8818529,23.9112444 L68.9287746,22.9332444 L69.3263131,21.9332444 C67.7582447,21.9112444 66.3226891,21.3110222 65.0196464,20.1110222 C63.6724327,18.8888 62.9877831,17.5110222 62.9877831,15.9554667 C62.9877831,13.1332444 65.3509285,10.9776889 70.0993046,9.4888 C69.5250823,8.66657778 68.7300054,8.24435556 67.6917674,8.24435556 C67.0515097,8.24435556 66.4331165,8.42213333 65.8809797,8.79991111 L64.4675096,9.75546667 L62.9877831,5.59991111 L64.7987917,5.46657778 C66.5435438,5.17768889 67.5813401,5.02213333 67.8907575,5.02213333 C69.9226208,5.02213333 71.4906892,5.64435556 72.5949627,6.86657778 C73.6548444,8.06657778 74.1851165,9.6888 74.1851165,11.7554667 C74.1409456,12.0888 74.1409456,12.4665778 74.0965538,12.8888 Z M70.5851849,12.9999111 C67.7803302,13.9332444 66.411031,14.9332444 66.455202,15.9776889 C66.4993729,16.7554667 66.8969114,17.3776889 67.6917674,17.8221333 C68.2662105,18.1554667 68.8625182,18.3332444 69.4809114,18.3332444 C69.6355097,18.3332444 69.7238516,18.3332444 69.7680225,18.3110222 C69.9226208,18.1999111 70.0551336,18.0888 70.1876464,17.9776889 C70.2539028,16.7332444 70.3864157,15.0665778 70.5851849,12.9999111 Z M62.965786,11.5999556 L61.5079241,14.0444 L56.3178386,14.4444 C56.4947432,16.6221778 56.8478899,17.8888444 57.378162,18.2444 C57.8417361,18.2888444 58.2615809,17.9777333 58.6147275,17.3110667 C58.8137176,16.7777333 59.0345723,16.2666222 59.255427,15.7332889 L62.634504,18.1999556 L61.1545566,19.1555111 C60.9557874,19.4444 60.6686763,19.7999556 60.3155296,20.2221778 C59.2993771,21.3999556 58.1951036,21.9999556 57.0027091,21.9999556 C54.5733073,21.9999556 53.3586065,18.9999556 53.3586065,12.9777333 C53.3586065,10.9332889 53.5571548,9.22217778 53.9549142,7.82217778 C54.5951719,5.55551111 55.6994455,4.51106667 57.2454284,4.68884444 C59.1008287,4.86662222 61.0222646,7.17773333 62.965786,11.5999556 Z M58.636813,10.7110667 C58.3720082,9.97773333 58.2174099,9.55551111 58.1511535,9.4444 C57.9079925,8.95551111 57.5990168,8.66662222 57.2235638,8.59995556 C56.7818544,8.79995556 56.4724369,9.55551111 56.3178386,10.8666222 L58.636813,10.7110667 Z M48.0358977,18.6444444 C48.3892652,18.2886667 48.6984618,17.4666667 48.941402,16.1555556 C49.1401712,15.0888889 49.2505986,14.1775556 49.2505986,13.4 C49.2505986,11.5555556 48.8088892,10.6444444 47.9033849,10.6444444 C47.1745644,10.6444444 46.357402,10.8888889 45.4298122,11.4 L45.4298122,16.3777778 L45.7390088,17 C46.688684,18.1555556 47.4616755,18.7111111 48.0358977,18.6444444 Z M27.5847081,12.0666444 L27.0767423,13.8444222 L20.8044688,14.4222 C20.9811525,16.5999778 21.3345201,17.8666444 21.8645713,18.2222 C22.460879,18.2888667 22.9246739,17.7999778 23.2780414,16.7999778 C23.2338705,16.5110889 23.1896996,16.2888667 23.1896996,16.0888667 C23.1896996,15.9110889 23.211785,15.7777556 23.2780414,15.6888667 L27.4080244,17.6444222 L25.6191013,19.1333111 C25.420332,19.4222 25.1332209,19.7777556 24.7798534,20.1999778 C23.7639218,21.3777556 22.6596483,21.9777556 21.4670329,21.9777556 C19.0376312,21.9777556 17.8229303,18.9777556 17.8229303,12.9555333 C17.8229303,10.9110889 18.0216995,9.19997778 18.4413235,7.79997778 C19.0818021,5.53331111 20.1639901,4.48886667 21.7099731,4.66664444 C23.5651525,4.84442222 25.5307594,7.31108889 27.5847081,12.0666444 Z M23.4768107,11.3999778 C23.3663833,11.1110889 23.211785,10.7110889 23.0130158,10.1555333 C22.836332,9.66664444 22.5271354,9.37775556 22.085426,9.28886667 C21.6437166,9.48886667 21.3345201,10.2444222 21.2020072,11.5555333 L23.4768107,11.3999778 Z M2.42940172,23.9999111 L2.76068378,21.7554667 L3.09196583,9.31102222 L2.62817096,7.51102222 L7.42071799,8.26657778 L6.58147012,9.42213333 L6.58147012,9.73324444 C7.17777782,9.4888 7.8624274,8.66657778 8.50290603,8.66657778 C9.38632484,8.66657778 10.0268035,9.13324444 10.4905984,10.0443556 C11.2856753,8.77768889 12.1911796,8.19991111 13.1850257,8.31102222 C14.6647522,8.4888 15.6585984,10.3776889 16.1444787,13.9776889 C16.343248,15.4443556 16.4757608,17.8443556 16.4978463,21.1776889 L16.8512138,23.6221333 L12.2795214,22.2665778 L13.008342,21.1776889 C13.1408548,20.1110222 13.2071112,19.0443556 13.2071112,17.9776889 C13.2071112,16.2221333 13.008342,14.8665778 12.588718,13.9332444 C12.0807522,13.9999111 11.6390428,14.5554667 11.2194189,15.6221333 C11.2194189,17.0223556 11.1089915,18.8665778 10.8881368,21.1110222 C11.131077,21.7110222 11.2415043,22.1110222 11.2194189,22.2888 L6.95692312,21.6665778 C6.97900859,21.5110222 7.15569235,21.2888 7.50905987,20.9999111 C7.90659834,18.7776889 8.12745304,17.2221333 8.12745304,16.3556889 C8.12745304,15.4888 7.99494022,14.9332444 7.70782911,14.6665778 C7.22194876,14.6665778 6.91275218,14.8221333 6.8244103,15.1334667 L6.36061542,16.8221333 L6.2281026,21.8665778 L6.93483765,23.1110222 L2.42940172,23.9999111 Z" id="Text" fill="#6CA743"></path>
                <path d="M52.6152206,12.1862653 C51.464737,12.1970659 50.3208333,12.2196909 49.177345,12.2554466 C49.0177573,11.1781245 48.5964042,10.6444444 47.9033849,10.6444444 C47.1745644,10.6444444 46.357402,10.8888889 45.4298122,11.4 L45.4298122,12.4209654 C44.2470964,12.4887944 43.0577082,12.5720207 41.8549403,12.6720657 L41.7636242,3.97777778 L41.3440002,2.31111111 L45.606496,2.22222222 L45.2752139,3.91111111 L45.2752139,7.6 C46.2028037,7.28888889 47.064137,7.13333333 47.859214,7.13333333 C49.5597952,7.13333333 50.7965815,7.77777778 51.6358294,9.06666667 C52.1590773,9.89885712 52.4888273,10.9387233 52.6152206,12.1862653 Z M40.9598032,12.7494185 C36.8745261,13.1156445 32.6177613,13.6776613 27.9312363,14.4901951 L28.0706326,9.24448889 L27.6068378,7.44426667 L32.3993848,8.20004444 L31.5601369,9.3556 L31.5601369,9.66648889 C32.2006156,8.9556 32.8410942,8.60004444 33.4815728,8.60004444 C34.3649917,8.60004444 35.0054703,9.06671111 35.4692652,9.97782222 C36.2643421,8.71115556 37.1698464,8.13337778 38.185778,8.24448889 C39.4972382,8.40205076 40.4270384,9.90369396 40.9598032,12.7494185 Z M82.2887058,13.3920107 C82.1055515,11.7274772 81.7358726,10.6560663 81.1862548,10.1777778 C80.4132633,10.2444444 79.5740154,11.1777778 78.6464257,12.9777778 L78.6406757,13.1781243 C77.4479321,13.1080534 76.2848545,13.0398491 75.148457,12.974144 L75.3112988,7.13333333 L75.0241877,5.2 L79.1762561,5.26666667 L78.7787177,7.26666667 L78.7787177,7.66666667 C79.6402719,6.88888889 80.4795197,6.51111111 81.2966821,6.51111111 C82.0255026,6.51111111 82.7099314,6.82222222 83.3948018,7.44444444 C84.5209399,8.48888889 85.2720668,10.4888889 85.6033488,13.4444444 C85.6113727,13.5113282 85.6191586,13.5807267 85.6267096,13.6526368 C84.644289,13.5518351 83.5917165,13.467924 82.465142,13.4022938 C82.4062582,13.3988634 82.3474463,13.3954357 82.2887058,13.3920107 Z M74.0943135,12.9134976 C70.7048868,12.7195651 67.5512596,12.5503237 64.5506915,12.4233054 C65.7303568,11.2572936 67.5787934,10.2791251 70.0993046,9.4888 C69.5250823,8.66657778 68.7300054,8.24435556 67.6917674,8.24435556 C67.0515097,8.24435556 66.4331165,8.42213333 65.8809797,8.79991111 L64.4675096,9.75546667 L62.9877831,5.59991111 L64.7987917,5.46657778 C66.5435438,5.17768889 67.5813401,5.02213333 67.8907575,5.02213333 C69.9226208,5.02213333 71.4906892,5.64435556 72.5949627,6.86657778 C73.6548444,8.06657778 74.1851165,9.6888 74.1851165,11.7554667 C74.1409456,12.0888 74.1409456,12.4665778 74.0965538,12.8888 C74.0958069,12.8970379 74.0950601,12.9052704 74.0943135,12.9134976 Z M62.5224782,12.3432643 C59.3493491,12.2277315 56.3330752,12.1662165 53.3691111,12.1808716 C53.4148495,10.4843393 53.6099731,9.03627236 53.9549142,7.82217778 C54.5951719,5.55551111 55.6994455,4.51106667 57.2454284,4.68884444 C59.1008287,4.86662222 61.0222646,7.17773333 62.965786,11.5999556 L62.5224782,12.3432643 Z M20.9600313,15.8181969 C19.9915265,16.0178592 19.0035085,16.2272929 17.9942608,16.4468615 C17.880039,15.4250241 17.8229303,14.261323 17.8229303,12.9555333 C17.8229303,10.9110889 18.0216995,9.19997778 18.4413235,7.79997778 C19.0818021,5.53331111 20.1639901,4.48886667 21.7099731,4.66664444 C23.5651525,4.84442222 25.5307594,7.31108889 27.5847081,12.0666444 L27.0767423,13.8444222 L20.8044688,14.4222 C20.8463808,14.9388013 20.898235,15.4041336 20.9600313,15.8181969 Z M2.80501022,20.0903661 L3.09196583,9.31102222 L2.62817096,7.51102222 L7.42071799,8.26657778 L6.58147012,9.42213333 L6.58147012,9.73324444 C7.17777782,9.4888 7.8624274,8.66657778 8.50290603,8.66657778 C9.38632484,8.66657778 10.0268035,9.13324444 10.4905984,10.0443556 C11.2856753,8.77768889 12.1911796,8.19991111 13.1850257,8.31102222 C14.6647522,8.4888 15.6585984,10.3776889 16.1444787,13.9776889 C16.2417614,14.6955127 16.3231732,15.6369045 16.3835358,16.8018644 C15.3461574,17.0333843 14.2864175,17.2753374 13.202573,17.5280929 C13.1708112,15.9892051 12.9717937,14.7852867 12.588718,13.9332444 C12.0807522,13.9999111 11.6390428,14.5554667 11.2194189,15.6221333 C11.2194189,16.3134449 11.1925016,17.1129838 11.1386672,18.0154814 C10.0743813,18.2698544 8.98712729,18.5342854 7.87538794,18.8090961 C8.03974664,17.7213767 8.12745304,16.901702 8.12745304,16.3556889 C8.12745304,15.4888 7.99494022,14.9332444 7.70782911,14.6665778 C7.22194876,14.6665778 6.91275218,14.8221333 6.8244103,15.1334667 L6.36061542,16.8221333 L6.2981032,19.2018231 C5.15960086,19.4873007 3.99574698,19.7833735 2.80501022,20.0903661 Z M58.636813,10.7110667 C58.3720082,9.97773333 58.2174099,9.55551111 58.1511535,9.4444 C57.9079925,8.95551111 57.5990168,8.66662222 57.2235638,8.59995556 C56.7818544,8.79995556 56.4724369,9.55551111 56.3178386,10.8666222 L58.636813,10.7110667 Z M23.4768107,11.3999778 C23.3663833,11.1110889 23.211785,10.7110889 23.0130158,10.1555333 C22.836332,9.66664444 22.5271354,9.37775556 22.085426,9.28886667 C21.6437166,9.48886667 21.3345201,10.2444222 21.2020072,11.5555333 L23.4768107,11.3999778 Z" id="Combined-Shape" fill="#9FC874"></path>
            </g>
        </g>
    </g>
</svg>

<svg width="89" height="26" viewBox="0 0 89 26" xmlns="http://www.w3.org/2000/svg"><title>Membean Logo</title><g fill="none" fill-rule="evenodd"><path d="M81.142 23.578l7.663.6-1.148-4.511c0-3.2-.088-5.4-.243-6.778-.397-3.445-1.303-5.8-2.805-7.178-1.038-.955-2.208-1.444-3.445-1.422l.243-1.2-8.591-.111.22 1.489c-1.39-1.111-3.135-1.69-5.256-1.69-.309 0-.84.045-3.313.468l-4.174.333.133.378c-.994-.89-2.01-1.378-3.092-1.49-.177-.022-.353-.022-.508-.022-1.26 0-3.468.556-4.638 4.09-1.281-1.2-3.026-1.756-5.08-1.578V3.8L47.86 0l-8.966.178.95 3.733.021 2.711a3.679 3.679 0 0 0-1.568-.555c-.154-.022-.309-.022-.442-.022-.684 0-1.568.177-2.473.866l.265-.377-9.85-1.556c-1.281-1.556-2.584-2.356-3.976-2.511-.176-.023-.353-.023-.508-.023-1.303 0-3.644.6-4.748 4.512-.11.355-.199.71-.265 1.089-.663-1.023-1.612-1.823-2.982-1.978-.132-.022-.242-.022-.375-.022-.685 0-1.568.177-2.473.866l.265-.377L0 4.822l1.148 4.334-.33 12.066L.11 26l9.674-1.933-.287-.489 3.335.489v-.022l6.25 1.844-.486-3.333c.729.6 1.656.978 2.805.978 1.59 0 3.048-.667 4.329-2L25.067 26l9.673-1.933-.287-.489 3.335.489v-.022l6.25 1.844-.265-1.822h3.446v-.356c.243.022.508.045.75.045 1.59 0 3.424-.622 4.77-2.934.818 1.556 2.099 2.712 4.153 2.712 1.745 0 3.335-.823 4.748-2.423.288-.333.53-.622.73-.91l.242-.156c.31.377.64.733 1.038 1.089.928.866 1.944 1.488 3.004 1.866l-.353.889L74.78 26l-.132-2.489 6.515.134-.022-.067z" fill="#21292E"/><path d="M41.698 22.51l.154 1.068-4.572-1.356.73-1.089c.132-1.067.198-2.133.198-3.2 0-1.755-.199-3.11-.619-4.044-.507.066-.95.622-1.369 1.689 0 1.4-.11 3.244-.331 5.51.243.6.353 1 .331 1.179l-4.262-.623c.022-.155.198-.377.552-.666.42-2.222.618-3.778.618-4.667 0-.867-.132-1.422-.42-1.689-.485 0-.794.156-.883.467l-.464 1.689-.132 5.044.707 1.244-4.528.89.331-2.245.332-12.467-.464-1.8 4.792.756-.839 1.156v.31c.64-.71 1.281-1.066 1.922-1.066.883 0 1.523.467 1.987 1.378.795-1.267 1.7-1.845 2.717-1.734 1.48.178 2.473 2.067 2.96 5.667.198 1.467.33 3.867.353 7.222l.17 1.173.271-1.506-.176-16.822-.42-1.667 4.262-.089-.33 1.69V7.6c.927-.311 1.788-.467 2.583-.467 1.7 0 2.938.645 3.777 1.934.684 1.089 1.038 2.533 1.038 4.333a14.49 14.49 0 0 1-.088 2c-.53 4.533-2.054 6.8-4.528 6.8-.817 0-1.7-.267-2.628-.822v1.133h-3.732zm44.723-.088l-4.33-.333.288-1.845v-.133c0-.422 0-1.067.022-1.933.022-.845.022-1.49.022-1.934 0-3.333-.42-5.355-1.237-6.066-.773.066-1.612 1-2.54 2.8l-.199 6.933.442 2.111-4.461-.089.53-2.133.353-12.667-.287-1.933 4.152.067-.397 2v.4c.861-.778 1.7-1.156 2.518-1.156.729 0 1.413.311 2.098.933 1.126 1.045 1.877 3.045 2.208 6 .155 1.29.221 3.511.221 6.645v.133l.597 2.2zM74.097 12.89c-.508 5.6-.95 8.71-1.303 9.356l.088 1.666-3.953-.978.397-1c-1.568-.022-3.003-.622-4.306-1.822-1.348-1.222-2.032-2.6-2.032-4.156 0-2.822 2.363-4.977 7.111-6.466-.574-.822-1.369-1.245-2.407-1.245-.64 0-1.259.178-1.811.556l-1.413.955-1.48-4.155 1.81-.133c1.746-.29 2.783-.445 3.093-.445 2.032 0 3.6.622 4.704 1.845 1.06 1.2 1.59 2.822 1.59 4.888-.044.334-.044.712-.088 1.134zm-3.512.11c-2.805.934-4.174 1.934-4.13 2.979.044.777.442 1.4 1.237 1.844.574.333 1.17.511 1.789.511.155 0 .243 0 .287-.022.155-.111.287-.222.42-.333.066-1.245.198-2.911.397-4.978zm-7.62-1.399l-1.457 2.444-5.19.4c.177 2.178.53 3.445 1.06 3.8.464.045.884-.266 1.237-.933.199-.533.42-1.044.64-1.578l3.38 2.467-1.48.956c-.2.288-.486.644-.84 1.066C59.3 21.4 58.196 22 57.004 22c-2.43 0-3.644-3-3.644-9.022 0-2.045.198-3.756.596-5.156.64-2.266 1.744-3.31 3.29-3.133 1.856.178 3.777 2.489 5.72 6.911zm-4.328-.889c-.265-.733-.42-1.155-.486-1.267-.243-.488-.552-.777-.927-.844-.442.2-.752.956-.906 2.267l2.319-.156zm-10.601 7.933c.353-.355.662-1.177.905-2.488.2-1.067.31-1.978.31-2.756 0-1.844-.442-2.756-1.348-2.756-.728 0-1.546.245-2.473.756v4.978l.309.622c.95 1.156 1.723 1.711 2.297 1.644zm-20.451-6.577l-.508 1.777-6.273.578c.177 2.178.53 3.445 1.06 3.8.597.067 1.06-.422 1.414-1.422-.044-.289-.088-.511-.088-.711 0-.178.022-.311.088-.4l4.13 1.955-1.789 1.49c-.199.288-.486.644-.84 1.066-1.015 1.178-2.12 1.778-3.312 1.778-2.43 0-3.644-3-3.644-9.022 0-2.045.199-3.756.618-5.156.64-2.267 1.723-3.311 3.269-3.133 1.855.177 3.82 2.644 5.875 7.4zm-4.108-.667c-.11-.289-.265-.689-.464-1.244-.177-.49-.486-.778-.928-.867-.441.2-.75.955-.883 2.267l2.275-.156zM2.429 24l.332-2.245.331-12.444-.464-1.8 4.793.756-.84 1.155v.311c.597-.244 1.281-1.066 1.922-1.066.883 0 1.524.466 1.988 1.377.795-1.266 1.7-1.844 2.694-1.733 1.48.178 2.474 2.067 2.96 5.667.198 1.466.33 3.866.353 7.2l.353 2.444-4.571-1.355.728-1.09c.133-1.066.2-2.133.2-3.2 0-1.755-.2-3.11-.62-4.044-.507.067-.949.622-1.369 1.69 0 1.4-.11 3.244-.33 5.488.242.6.353 1 .33 1.178l-4.262-.622c.022-.156.199-.378.552-.667.398-2.222.618-3.778.618-4.644 0-.867-.132-1.423-.42-1.69-.485 0-.794.156-.883.467l-.463 1.69-.133 5.044.707 1.244L2.429 24z" fill="#6CA743"/><path d="M52.615 12.186c-1.15.011-2.294.034-3.438.07-.16-1.078-.58-1.612-1.274-1.612-.728 0-1.546.245-2.473.756v1.021c-1.183.068-2.372.151-3.575.251l-.091-8.694-.42-1.667 4.262-.089-.33 1.69V7.6c.927-.311 1.788-.467 2.583-.467 1.7 0 2.938.645 3.777 1.934.523.832.853 1.872.98 3.12zm-11.655.563c-4.085.367-8.342.929-13.029 1.741l.14-5.246-.464-1.8 4.792.756-.839 1.156v.31c.64-.71 1.281-1.066 1.922-1.066.883 0 1.523.467 1.987 1.378.795-1.267 1.7-1.845 2.717-1.734 1.311.158 2.241 1.66 2.774 4.505zm41.329.643c-.183-1.665-.553-2.736-1.103-3.214-.773.066-1.612 1-2.54 2.8l-.005.2-3.493-.204.163-5.84-.287-1.934 4.152.067-.397 2v.4c.861-.778 1.7-1.156 2.518-1.156.729 0 1.413.311 2.098.933 1.126 1.045 1.877 3.045 2.208 6l.024.209a72.122 72.122 0 0 0-3.338-.261zm-8.195-.479c-3.39-.193-6.543-.363-9.543-.49 1.18-1.166 3.028-2.144 5.548-2.934-.574-.822-1.369-1.245-2.407-1.245-.64 0-1.259.178-1.811.556l-1.413.955-1.48-4.155 1.81-.133c1.746-.29 2.783-.445 3.093-.445 2.032 0 3.6.622 4.704 1.845 1.06 1.2 1.59 2.822 1.59 4.888-.044.334-.044.712-.088 1.134l-.003.024zm-11.572-.57c-3.173-.115-6.189-.177-9.153-.162.046-1.697.241-3.145.586-4.359.64-2.266 1.744-3.31 3.29-3.133 1.856.178 3.777 2.489 5.72 6.911l-.443.743zM20.96 15.818c-.968.2-1.956.41-2.966.629a31.73 31.73 0 0 1-.171-3.491c0-2.045.199-3.756.618-5.156.64-2.267 1.723-3.311 3.269-3.133 1.855.177 3.82 2.644 5.875 7.4l-.508 1.777-6.273.578c.042.517.094.982.156 1.396zM2.805 20.09l.287-10.779-.464-1.8 4.793.756-.84 1.155v.311c.597-.244 1.281-1.066 1.922-1.066.883 0 1.524.466 1.988 1.377.795-1.266 1.7-1.844 2.694-1.733 1.48.178 2.474 2.067 2.96 5.667.097.718.178 1.659.239 2.824a342.47 342.47 0 0 0-3.181.726c-.032-1.539-.231-2.743-.614-3.595-.508.067-.95.622-1.37 1.69 0 .69-.026 1.49-.08 2.392a434.82 434.82 0 0 0-3.264.794c.165-1.088.252-1.907.252-2.453 0-.867-.132-1.423-.42-1.69-.485 0-.794.156-.883.467l-.463 1.69-.063 2.379c-1.138.285-2.302.581-3.493.888zm55.832-9.379c-.265-.733-.42-1.155-.486-1.267-.243-.488-.552-.777-.927-.844-.442.2-.752.956-.906 2.267l2.319-.156zm-35.16.689c-.11-.289-.265-.689-.464-1.244-.177-.49-.486-.778-.928-.867-.441.2-.75.955-.883 2.267l2.275-.156z" fill="#9FC874"/></g></svg>
